!!!COM: Corelli, Arcangelo
!!!OPR: Sonata da camera
!!!OPS: 4
!!!ONM: 11
!!!OMV: 3
!!!OTL: Allemanda
!!!OMD: Allegro
**kern	**harm	**fb	**kern	**kern
*part3	*above	*part3	*part2	*part1
*staff3	*	*	*staff2	*staff1
*I"Violone & Cembalo	*	*	*I"Violino II	*I"Violino I
*clefF4	*	*	*clefG2	*clefG2
*k[b-e-]	*	*	*k[b-e-]	*k[b-e-]
*c:	*	*	*c:	*c:
*M4/4	*	*	*M4/4	*M4/4
*met(c)	*	*	*met(c)	*met(c)
*MM104	*	*	*MM104	*MM104
=1	=1	=1	=1	=1
8cL	c.i{	.	4r	2cc
8C	.	.	.	.
8E-	i6	6	2cc	.
8CJ	.	.	.	.
8FL	ii%65	6 5	.	2dd
8D	.	.	.	.
8G	V	n	4bn	.
8GGJ	.	.	.	.
=2	=2	=2	=2	=2
8CL	i	.	4cc	2ee-
8E-	.	.	.	.
8G	I6/III	6	2ee-	.
8E-J	.	.	.	.
*E-:	*	*	*E-:	*E-:
8A-XL	ii65/III	6 5	.	2ff
8F	.	.	.	.
8B-	V/III	.	4dd	.
8BB-J	.	.	.	.
=3	=3	=3	=3	=3
8E-L	III	.	4ee-	2gg
8G	.	.	.	.
8B-	i6/v	6	2gg	.
8GJ	.	.	.	.
8cL	ii%65/v	6 5	.	2aa
8Ani	.	.	.	.
8d	ii	-	[4ff	.
8DJ	.	.	.	.
=4	=4	=4	=4	=4
*c:	*	*	*c:	*c:
8GL	V7	7 n	4ff]	4bbn
8G	.	.	.	.
8A-X	VI	5	4ee-	2ccc
8E-J	.	.	.	.
8FL	ii%65	6 5	2dd	.
8D	.	.	.	.
8G	V	n	.	4bb
8GGJ	.	.	.	.
=5	=5	=5	=5	=5
8CL	i|PAC}{	.	4cc	4ccc
8E-	.	.	.	.
8G	III.I6	6	4r	2ee-
8E-J	.	.	.	.
*E-:	*	*	*E-:	*E-:
8A-XL	ii65	6 5	[2ff	.
8F	.	.	.	.
8B-	V	.	.	4dd
8BB-J	.	.	.	.
=6	=6	=6	=6	=6
8E-L	I(9)	9	4ff]	2.gg
8F	.	.	.	.
8G	I6	6	4ee-	.
8E-J	.	.	.	.
8FL	ii(9)	9 -	[2aa-X	.
8G	.	.	.	.
8A-X	ii6	6	.	4ff
8FJ	.	.	.	.
=7	=7	=7	=7	=7
8GL	iii(9)	-9	4aa-]	4b-
8A-X	.	.	.	.
8B-	iii6	6	4gg	2bb-
8GJ	.	.	.	.
8A-L	IV(9)	9	4cc	.
8B-	.	.	.	.
8c	IV6	-6	4ccc	[4aa-X
8dJ	.	.	.	.
=8	=8	=8	=8	=8
8e-L	I(4)	5 -4	2bb-	4aa-]
8E-	.	.	.	.
8G	I6	6	.	2gg
8E-J	.	.	.	.
8FL	ii(9)	9 -	2aa-X	.
8E-	.	.	.	.
8D	V65	.	.	[4ff
8BB-J	.	.	.	.
=9	=9	=9	=9	=9
8E-L	I(9)	9	2gg	4ff]
8F	.	.	.	.
8G	I6	6	.	2ee-
8E-J	.	.	.	.
8A-XL	ii65	6 5	2ff	.
8F	.	.	.	.
8B-	V	.	.	4dd
8BB-J	.	.	.	.
=10	=10	=10	=10	=10
8E-L	I|IAC}{	.	4ee-	4ee-
8G	.	.	.	.
*c:	*	*	*c:	*c:
8E-	i.i6	6	4r	2cc
8CJ	.	.	.	.
8FL	ii%65	6 5 -	[2dd	.
8D	.	.	.	.
8G	V	n	.	4bn
8GGJ	.	.	.	.
=11	=11	=11	=11	=11
8CL	i(9)	9	4dd]	2.ee-
8D	.	.	.	.
8E-	i6	6	4cc	.
8CJ	.	.	.	.
*g:	*	*	*g:	*g:
8DL	v.V(9)	9 #	4f#X	.
8En	.	.	.	.
8F#X	V6	6	[4aa	8ddL
8DJ	.	.	.	8ccJ
=12	=12	=12	=12	=12
8GL	i(9)	9	4aa]	8b-L
8A	.	.	.	8ccJ
8B-	i6	6	8ggL	2dd
8GJ	.	.	8ffniJ	.
8cL	IV(9)	9 n	8eenL	.
8d	.	.	8ff#X	.
8e-Xi	iv6	6	8gg	[4cc
8cJ	.	.	8aaJ	.
=13	=13	=13	=13	=13
8dL	V7	7 #	8ff#XL	4cc]
8d	.	.	8ddJ	.
8e-	VI	5	2gg	4b-
8B-J	.	.	.	.
8cL	ii%65	6 5	.	2a
8A	.	.	.	.
8d	V	#	4ff#	.
8DJ	.	.	.	.
=14	=14	=14	=14	=14
8GL	i|PAC}{	.	4gg	4g
8A	.	.	.	.
8B-	i6	6	4r	2dd
8BB-J	.	.	.	.
8CL	iv(9)	9	[2ee-	.
8D	.	.	.	.
8E-	iv6	6	.	4cc
8CJ	.	.	.	.
=15	=15	=15	=15	=15
8DL	V(9)	9 #	4ee-]	8f#XL
8En	.	.	.	8gJ
8F#X	V6	6	8ddL	2a
8DJ	.	.	8ccJ	.
8GL	i(9)	9	8b-L	.
8A	.	.	8ccJ	.
8B-	i6	6	[4dd	8gL
8BB-J	.	.	.	8fnJ
=16	=16	=16	=16	=16
8CL	IV(9)	9 n	4dd]	8enL
8D	.	.	.	8f#X
8E-Xi	iv6	6	2cc	8g
8CJ	.	.	.	8aJ
8DL	V7	7 #	.	8f#L
8D	.	.	.	8dJ
8E-	VI	5	4b-	[4g
8BB-J	.	.	.	.
=17	=17	=17	=17	=17
8CL	ii%65	6 5	2a	4g]
8AA	.	.	.	.
8D	V	#	.	4f#X
8DDJ	.	.	.	.
2GG	i|PAC}	.	2g	2g
=18:|!|:	=18:|!|:	=18:|!|:	=18:|!|:	=18:|!|:
*c:	*	*	*c:	*c:
8GL	i.V{	n	2r	4dd
8A	.	.	.	.
8Bn	V6	6	.	4gg
8GJ	.	.	.	.
8cL	i	.	4g	2ee-
8C	.	.	.	.
8E-	i6	6	4cc	.
8CJ	.	.	.	.
=19	=19	=19	=19	=19
8GL	V	n	2bn	4dd
8GG	.	.	.	.
8BBn	V6	6	.	4gg
8GGJ	.	.	.	.
8CL	i	.	4g	2ee-
8D	.	.	.	.
8E-	i6	6	4cc	.
8CJ	.	.	.	.
=20	=20	=20	=20	=20
*B-:	*	*	*B-:	*B-:
8FL	VII.V	.	2a	4cc
8G	.	.	.	.
8A	V6	6	.	4ff
8FJ	.	.	.	.
8B-XiL	I	.	4f	2dd
8BB-	.	.	.	.
8D	I6	6	4b-Xi	.
8BB-J	.	.	.	.
=21	=21	=21	=21	=21
8FL	V	.	2a	4cc
8FF	.	.	.	.
8AA	V6	6	.	4ff
8FFJ	.	.	.	.
8BB-L	I	.	4f	2dd
8C	.	.	.	.
8D	I6	6	4b-	.
8BB-J	.	.	.	.
=22	=22	=22	=22	=22
*E-:	*	*	*E-:	*E-:
8E-L	III.I	.	4g	4b-
8F	.	.	.	.
8G	I6	6	2b-	4ee-
8E-J	.	.	.	.
8A-XL	IV(9)	9	.	4cc
8AA-X	.	.	.	.
8C	IV6	-6	[4a-X	4ff
8AA-J	.	.	.	.
=23	=23	=23	=23	=23
8BB-L	V7	-7	4a-]	4dd
8B-	.	.	.	.
8c	vi	5	4g	2ee-
8GJ	.	.	.	.
8A-XL	ii65	6 5	2f	.
8F	.	.	.	.
8B-	V	.	.	4dd
8BB-J	.	.	.	.
=24	=24	=24	=24	=24
4E-	I|PAC}{	.	4g	8ee-L
.	.	.	.	8b-
4D	V6	6	4.r	8f
.	.	.	.	8b-J
4E-	I	.	.	4g
.	.	.	8b-L	.
4D	V6	6	8f	4r
.	.	.	8b-J	.
=25	=25	=25	=25	=25
4E-	I	.	4g	8r
.	.	.	.	8ccL
*f:	*	*	*f:	*f:
4En	iv.V6	6	4.r	8g
.	.	.	.	8ccJ
4F	i	-	.	4a-X
.	.	.	8ccL	.
4E	V6	6	8g	4r
.	.	.	8ccJ	.
=26	=26	=26	=26	=26
4F	i	-	4a-X	8r
.	.	.	.	8ddL
*g:	*	*	*g:	*g:
4F#X	v.V	6	4.r	8ani
.	.	.	.	8ddJ
4G	i	.	.	4b-
.	.	.	8ddL	.
4F#	V	6	8an	4r
.	.	.	8ddJ	.
=27	=27	=27	=27	=27
4.G	i	-	4b-	8r
.	.	.	.	8b-
.	.	.	8r	4.dd
8Fni	i2	.	8dd	.
8E-L	iv6(2)	7	4.gg	.
8D	.	.	.	8g
8E-	iv6	6	.	[4cc
8CJ	.	.	8aa	.
=28	=28	=28	=28	=28
8DL	V7	7 #	8ff#XL	4cc]
8d	.	.	8ddJ	.
8e-	VI	.	2gg	4b-
8B-J	.	.	.	.
8cL	ii%65	6 5	.	2a
8A	.	.	.	.
8d	V	#	4ff#	.
8DJ	.	.	.	.
=29	=29	=29	=29	=29
8GL	i	.	4gg	4g
8F	.	.	.	.
*c:	*	*	*c:	*c:
8E-	i.i6	6	4r	2cc
8CJ	.	.	.	.
8FL	ii%65	6 5 -	[2dd	.
8D	.	.	.	.
8G	V	n	.	4bn
8GGJ	.	.	.	.
=30	=30	=30	=30	=30
8CL	i(9)	9	4dd]	2.ee-
8D	.	.	.	.
8E-	i6	6	4cc	.
8CJ	.	.	.	.
8DL	iio(9)	9	[2ff	.
8E-	.	.	.	.
8F	iio6	6	.	4dd
8DJ	.	.	.	.
=31	=31	=31	=31	=31
8E-L	III(9)	9	4ff]	2.gg
8F	.	.	.	.
8G	III6	6	4ee-	.
8E-J	.	.	.	.
8FL	iv(9)	9 -	[2aa-X	.
8G	.	.	.	.
8A-X	iv6	6	.	4ff
8FJ	.	.	.	.
=32	=32	=32	=32	=32
8GL	V(9)	-9 n	4aa-]	8bnL
8GG	.	.	.	8ccJ
8BBn	V6	6	8ggL	2dd
8GGJ	.	.	8ffJ	.
8CL	i(9)	9	8ee-L	.
8D	.	.	8ffJ	.
8E-	i6	6	[4gg	8ccL
8CJ	.	.	.	8b-XJ
=33	=33	=33	=33	=33
8FL	IV(9)	9 n	4gg]	8aL
8G	.	.	.	8bn
8A-X	iv6	6	2ff	8cc
8FJ	.	.	.	8ddJ
8GL	V7	7 n	.	8bL
8G	.	.	.	8gJ
8A-	VI	5	4ee-	[4cc
8E-J	.	.	.	.
=34	=34	=34	=34	=34
8FL	ii%65	6 5	2dd	4cc]
8D	.	.	.	.
8G	V	n	.	4bn
8GGJ	.	.	.	.
8CL	i	.	2cc	4cc
8D	.	.	.	.
8E-	i6	6	.	[4g
8CJ	.	.	.	.
=35	=35	=35	=35	=35
8FL	iv(9)	9 -	2a-X	4g]
8G	.	.	.	.
8A-X	iv6	6	.	2f
8FJ	.	.	.	.
8GL	V7	7 n	4Bn	.
8G	.	.	.	.
8A-	VI	5	[4c	4e-
8E-J	.	.	.	.
=36	=36	=36	=36	=36
8FL	ii%65	6 5	4c]	2d
8D	.	.	.	.
8G	V	n	4Bn	.
8GGJ	.	.	.	.
2C	i|PAC}	.	2c	2c
=:|!	=:|!	=:|!	=:|!	=:|!
*-	*-	*-	*-	*-
!!!system-decoration: [{s1,s2},s3]
!!!YEM: CC BY-NC-SA 4.0; CCARH; DCML
!!!RDF**kern: i = editorial accidental